packages/design-assets/icons/16px/Charts/Text.svg

<?xml version="1.0" encoding="UTF-8"?>
<svg width="16px" height="16px" viewBox="0 0 16 16" version="1.1" xmlns="http://www.w3.org/2000/svg" xmlns:xlink="http://www.w3.org/1999/xlink">
    <!-- Generator: Sketch 54.1 (76490) - https://sketchapp.com -->
    <title>Icons/16px/Charts/Text</title>
    <desc>Created with Sketch.</desc>
    <g id="Icons/16px/Charts/Text" stroke="none" stroke-width="1" fill="none" fill-rule="evenodd">
        <path d="M5.32907052e-15,14 L16,14 L16,16 L5.32907052e-15,16 L5.32907052e-15,14 Z M10.7112976,8.84215778 C10.6418129,9.4457573 10.4425362,9.91906647 10.1134644,10.2620948 C9.69630732,10.696944 9.09206532,10.9143654 8.30072021,10.9143654 L4.66210938,10.9143654 L4.24316406,9.11458159 L2.08935547,9.11458159 L1.67041016,10.9143654 L0,10.9143654 L2.44384766,2.12079086 L3.88867188,2.12079086 L5.71185303,8.63808107 L5.71185303,2.12079086 L8.12884521,2.12079086 C8.94525555,2.12079086 9.56561067,2.32512669 9.9899292,2.73380447 C10.4142477,3.14248225 10.6264038,3.7413976 10.6264038,4.5305685 C10.6264038,4.56639369 10.6258401,4.60181784 10.6247128,4.63684096 C10.7340821,3.96467187 10.949326,3.41286946 11.2704468,2.98142573 C11.7574284,2.32713864 12.4341794,2 13.3007202,2 C14.152938,2 14.8001483,2.26775039 15.2423706,2.80325921 C15.6845929,3.33876803 15.9361366,4.10779548 15.9970093,5.11036462 L14.4125366,5.11036462 C14.3982136,4.49030178 14.3131722,4.06250509 14.1574097,3.82696174 C14.0016472,3.59141839 13.7160869,3.47364848 13.3007202,3.47364848 C12.8781921,3.47364848 12.5792042,3.63973425 12.4037476,3.97191077 C12.228291,4.3040873 12.1351929,4.85066047 12.1244507,5.61164668 L12.1244507,7.27252099 C12.1244507,8.14624591 12.2112825,8.74616784 12.3849487,9.07230479 C12.558615,9.39844174 12.8567077,9.56150777 13.2792358,9.56150777 C13.6946025,9.56150777 13.981058,9.44776418 14.1386108,9.22027359 C14.2961637,8.99278301 14.385681,8.58109161 14.4071655,7.98518706 L15.9862671,7.98518706 C15.9468789,8.9877562 15.6962303,9.74671784 15.234314,10.2620948 C14.7723976,10.7774717 14.1207114,11.0351562 13.2792358,11.0351562 C12.3947913,11.0351562 11.7171451,10.7080176 11.2462769,10.0537305 C11.0073134,9.72168286 10.8289873,9.3178265 10.7112976,8.84215778 L10.7112976,8.84215778 Z M10.539978,7.24339171 L10.539978,5.77471434 C10.539978,5.55233195 10.5482309,5.33933247 10.5647366,5.13571573 C10.5209174,5.33513 10.4537454,5.51793129 10.3632202,5.6841212 C10.1877636,6.00623177 9.94785715,6.24177159 9.64349365,6.39074772 C9.99440687,6.50348642 10.2647492,6.72996702 10.4545288,7.0701963 C10.4855467,7.12580399 10.5140298,7.18353578 10.539978,7.24339171 L10.539978,7.24339171 Z M2.43310547,7.63489357 L3.89404297,7.63489357 L3.16357422,4.50037078 L2.43310547,7.63489357 Z M7.29180908,7.09133471 L7.29180908,9.44071691 L8.30157471,9.44071691 C8.58445373,9.44071691 8.79929533,9.34207203 8.94610596,9.14477931 C9.09291659,8.94748658 9.1663208,8.66765723 9.1663208,8.30528284 C9.1663208,7.51611195 8.91209157,7.11146662 8.40362549,7.09133471 L7.29180908,7.09133471 Z M7.29180908,5.79887251 L8.11358643,5.79887251 C8.73305567,5.79887251 9.04278564,5.43851672 9.04278564,4.71779433 C9.04278564,4.3191825 8.97117178,4.03331366 8.82794189,3.86017923 C8.68471201,3.6870448 8.45196694,3.60047888 8.12969971,3.60047888 L7.29180908,3.60047888 L7.29180908,5.79887251 Z" id="i-16-chart-text" fill="#818F99"></path>
    </g>
</svg>

<svg width="16" height="16" xmlns="http://www.w3.org/2000/svg"><path d="M0 14h16v2H0v-2zm10.711-5.158c-.07.604-.268 1.077-.598 1.42-.417.435-1.02.652-1.812.652H4.662l-.419-1.8H2.09l-.419 1.8H0l2.444-8.793h1.445l1.823 6.517V2.121h2.417c.816 0 1.437.204 1.86.613.425.408.637 1.007.637 1.797l-.001.106c.11-.672.324-1.224.645-1.656C11.757 2.327 12.434 2 13.3 2c.853 0 1.5.268 1.942.803.443.536.694 1.305.755 2.307h-1.584c-.015-.62-.1-1.047-.256-1.283-.155-.236-.44-.353-.856-.353-.423 0-.722.166-.897.498-.176.332-.269.879-.28 1.64v1.66c0 .874.087 1.474.26 1.8.175.326.473.49.895.49.416 0 .702-.114.86-.342.157-.227.247-.639.268-1.235h1.58c-.04 1.003-.29 1.762-.753 2.277-.462.515-1.113.773-1.955.773-.884 0-1.562-.327-2.033-.981a3.485 3.485 0 0 1-.535-1.212zm-.171-1.599V5.775c0-.223.008-.436.025-.64-.044.2-.111.383-.202.55a1.625 1.625 0 0 1-.72.706c.351.112.622.339.812.68.03.055.059.113.085.172zm-8.107.392h1.461L3.164 4.5l-.73 3.135zm4.859-.544v2.35h1.01c.282 0 .497-.099.644-.296.147-.198.22-.477.22-.84 0-.789-.254-1.194-.762-1.214H7.292zm0-1.292h.822c.62 0 .929-.36.929-1.081 0-.399-.072-.685-.215-.858-.143-.173-.376-.26-.698-.26h-.838V5.8z" fill="#818F99" fill-rule="evenodd"/></svg>
